svgs/thin/display-code.svg

<svg xmlns="http://www.w3.org/2000/svg" viewBox="0 0 576 512"><!--! Font Awesome Pro 6.3.0 by @fontawesome - https://fontawesome.com License - https://fontawesome.com/license (Commercial License) Copyright 2023 Fonticons, Inc. --><path d="M349.7 138.3c-3.125-3.125-8.188-3.125-11.31 0s-3.125 8.188 0 11.31L396.7 208l-58.34 58.34c-3.125 3.125-3.125 8.188 0 11.31C339.9 279.2 341.1 280 344 280s4.094-.7813 5.656-2.344l64-64c3.125-3.125 3.125-8.188 0-11.31L349.7 138.3zM237.7 138.3c-3.125-3.125-8.188-3.125-11.31 0l-64 64c-3.125 3.125-3.125 8.188 0 11.31l64 64C227.9 279.2 229.1 280 232 280s4.094-.7813 5.656-2.344c3.125-3.125 3.125-8.188 0-11.31L179.3 208l58.34-58.34C240.8 146.5 240.8 141.5 237.7 138.3zM64 352h448V64H64V352zM80 80h416v256h-416V80zM528 0h-480C21.5 0 0 21.5 0 48v320C0 394.5 21.5 416 48 416h180.9l-26.67 80H136C131.6 496 128 499.6 128 504S131.6 512 136 512h304c4.406 0 8-3.578 8-8s-3.594-8-8-8h-66.21l-26.67-80H528c26.5 0 48-21.5 48-48v-320C576 21.5 554.5 0 528 0zM356.9 496H219.1l26.67-80h84.46L356.9 496zM560 368c0 17.64-14.36 32-32 32h-480c-17.64 0-32-14.36-32-32v-320c0-17.64 14.36-32 32-32h480c17.64 0 32 14.36 32 32V368z"/></svg>

<svg xmlns="http://www.w3.org/2000/svg" viewBox="0 0 576 512"><!-- Font Awesome Pro 6.0.0-alpha2 by @fontawesome - https://fontawesome.com License - https://fontawesome.com/license (Commercial License) --><path d="M349.656 138.344C346.531 135.219 341.469 135.219 338.344 138.344S335.219 146.531 338.344 149.656L396.688 208L338.344 266.344C335.219 269.469 335.219 274.531 338.344 277.656C339.906 279.219 341.953 280 344 280S348.094 279.219 349.656 277.656L413.656 213.656C416.781 210.531 416.781 205.469 413.656 202.344L349.656 138.344ZM237.656 138.344C234.531 135.219 229.469 135.219 226.344 138.344L162.344 202.344C159.219 205.469 159.219 210.531 162.344 213.656L226.344 277.656C227.906 279.219 229.953 280 232 280S236.094 279.219 237.656 277.656C240.781 274.531 240.781 269.469 237.656 266.344L179.312 208L237.656 149.656C240.781 146.531 240.781 141.469 237.656 138.344ZM64 352H512V64H64V352ZM80 80H496V336H80V80ZM528 0H48C21.5 0 0 21.5 0 48V368C0 394.5 21.5 416 48 416H228.91L202.242 496H136C131.594 496 128 499.578 128 504S131.594 512 136 512H440C444.406 512 448 508.422 448 504S444.406 496 440 496H373.785L347.117 416H528C554.5 416 576 394.5 576 368V48C576 21.5 554.5 0 528 0ZM356.91 496H219.117L245.785 416H330.242L356.91 496ZM560 368C560 385.645 545.645 400 528 400H48C30.355 400 16 385.645 16 368V48C16 30.355 30.355 16 48 16H528C545.645 16 560 30.355 560 48V368Z"/></svg>
